X: 37419
T: Sliabh Badánach
R: reel
M: 4/4
K: Gmajor
E|D3E G2A2|G3A B2AG|B3d edBA|G2E2 E3D|D3E G2A2|
B2e2 d3c|B3A BAGE|E2D2 D3||G|A3B c2d2|d3c cBAG|
c3E A2Bc|d2dB G3G|A2Bc d3e|e3d cBAG|B3A BAGE|E2D2 D3||

